img/actions/icon-1.svg

<svg width="58" height="58" viewBox="0 0 58 58" fill="none" xmlns="http://www.w3.org/2000/svg">
<g filter="url(#filter0_b_2709_4303)">
<rect x="1" y="1" width="56" height="56" rx="16" fill="url(#paint0_radial_2709_4303)" fill-opacity="0.2"/>
<rect x="1" y="1" width="56" height="56" rx="16" stroke="url(#paint1_linear_2709_4303)"/>
</g>
<circle cx="36.4667" cy="35.3467" r="9.33333" fill="url(#paint2_linear_2709_4303)"/>
<g filter="url(#filter1_b_2709_4303)">
<path fill-rule="evenodd" clip-rule="evenodd" d="M18.4982 16.6239C18.6291 16.5289 18.7644 16.4414 18.905 16.3609C18.9502 16.4615 19.014 16.5558 19.0966 16.6384C20.7027 18.2443 21.9633 19.5029 23.0745 20.3923C24.1995 21.2928 25.2531 21.8838 26.467 22.076C27.2086 22.1935 27.9641 22.1935 28.7057 22.076C29.8856 21.8891 30.9139 21.3256 32.0037 20.4673C33.0797 19.62 34.2875 18.4257 35.8079 16.9064C35.8567 16.8576 35.899 16.8048 35.9347 16.749C36.3945 17.1072 36.802 17.5284 37.145 18.0005C38.3333 19.6361 38.3333 21.9692 38.3333 26.6356V29.1245C38.3333 33.7908 38.3333 36.124 37.145 37.7596C36.7612 38.2878 36.2967 38.7523 35.7684 39.1361C34.1328 40.3245 31.7997 40.3245 27.1333 40.3245C22.467 40.3245 20.1338 40.3245 18.4982 39.1361C17.97 38.7523 17.5055 38.2878 17.1217 37.7596C15.9333 36.124 15.9333 33.7908 15.9333 29.1245V26.6356C15.9333 21.9692 15.9333 19.6361 17.1217 18.0005C17.5055 17.4722 17.97 17.0077 18.4982 16.6239Z" fill="#28D03B" fill-opacity="0.35"/>
<path d="M27.1333 15.4356C30.4933 15.4356 32.6435 15.4356 34.1948 15.8792C32.8006 17.2697 31.7577 18.285 30.8488 19.0008C29.8912 19.755 29.1571 20.1146 28.4137 20.2323C27.8655 20.3192 27.3071 20.3192 26.759 20.2323C25.9942 20.1112 25.2395 19.7342 24.241 18.935C23.3112 18.1908 22.2414 17.141 20.8073 15.709C22.2909 15.4356 24.2741 15.4356 27.1333 15.4356Z" fill="#28D03B" fill-opacity="0.35"/>
<path d="M19.0753 16.2845L18.991 16.0967L18.8123 16.1989C18.6658 16.2827 18.5248 16.3738 18.3885 16.4729C17.8444 16.8682 17.366 17.3467 16.9707 17.8907C16.3495 18.7457 16.0466 19.7745 15.8963 21.1614C15.7467 22.5425 15.7467 24.3006 15.7467 26.6237V26.6356V29.1245V29.1364C15.7467 31.4595 15.7467 33.2176 15.8963 34.5986C16.0466 35.9856 16.3495 37.0144 16.9707 37.8693C17.366 38.4134 17.8444 38.8918 18.3885 39.2871C19.2434 39.9083 20.2722 40.2112 21.6592 40.3615C23.0402 40.5111 24.7983 40.5111 27.1215 40.5111H27.1333H27.1452C29.4683 40.5111 31.2264 40.5111 32.6075 40.3615C33.9944 40.2112 35.0232 39.9083 35.8782 39.2871C36.4222 38.8918 36.9007 38.4134 37.296 37.8693C37.9172 37.0144 38.2201 35.9856 38.3704 34.5986C38.52 33.2176 38.52 31.4595 38.52 29.1363V29.1245V26.6356V26.6237C38.52 24.3006 38.52 22.5425 38.3704 21.1614C38.2201 19.7745 37.9172 18.7457 37.296 17.8907C36.9427 17.4045 36.523 16.9707 36.0494 16.6018L35.888 16.476L35.7776 16.6483C35.749 16.6928 35.7152 16.7351 35.676 16.7743C34.1533 18.2959 32.9537 19.4815 31.8883 20.3206C30.8116 21.1685 29.8128 21.7117 28.6765 21.8917C27.9542 22.0061 27.2184 22.0061 26.4962 21.8917C25.3272 21.7065 24.3035 21.1369 23.1912 20.2466C22.0898 19.3651 20.8374 18.1151 19.2286 16.5064C19.1623 16.44 19.1113 16.3647 19.0753 16.2845ZM34.3266 16.0114L34.5515 15.787L34.2461 15.6997C32.6697 15.2489 30.4977 15.2489 27.1734 15.2489L27.1333 15.2489H27.11C24.271 15.2489 22.2738 15.2489 20.7735 15.5254L20.4238 15.5898L20.6754 15.841C22.1077 17.2713 23.185 18.3289 24.1243 19.0807C25.1355 19.8901 25.9201 20.2885 26.7298 20.4167C27.2973 20.5066 27.8754 20.5066 28.4429 20.4167C29.2299 20.2921 29.9934 19.912 30.9643 19.1474C31.8833 18.4237 32.9339 17.4004 34.3266 16.0114Z" stroke="url(#paint3_linear_2709_4303)" stroke-width="0.373333" stroke-linecap="round"/>
</g>
<g filter="url(#filter2_d_2709_4303)">
<path fill-rule="evenodd" clip-rule="evenodd" d="M24.6443 26.9467C24.1288 26.9467 23.711 27.3646 23.711 27.88C23.711 28.3955 24.1288 28.8134 24.6443 28.8134H29.6221C30.1376 28.8134 30.5554 28.3955 30.5554 27.88C30.5554 27.3646 30.1376 26.9467 29.6221 26.9467H24.6443ZM22.1554 31.9245C21.64 31.9245 21.2221 32.3423 21.2221 32.8578C21.2221 33.3733 21.64 33.7911 22.1554 33.7911H32.111C32.6264 33.7911 33.0443 33.3733 33.0443 32.8578C33.0443 32.3423 32.6264 31.9245 32.111 31.9245H22.1554Z" fill="url(#paint4_linear_2709_4303)"/>
</g>
<defs>
<filter id="filter0_b_2709_4303" x="-8.46" y="-8.46" width="74.92" height="74.92" filterUnits="userSpaceOnUse" color-interpolation-filters="sRGB">
<feFlood flood-opacity="0" result="BackgroundImageFix"/>
<feGaussianBlur in="BackgroundImageFix" stdDeviation="4.48"/>
<feComposite in2="SourceAlpha" operator="in" result="effect1_backgroundBlur_2709_4303"/>
<feBlend mode="normal" in="SourceGraphic" in2="effect1_backgroundBlur_2709_4303" result="shape"/>
</filter>
<filter id="filter1_b_2709_4303" x="6.6" y="6.10226" width="41.0667" height="43.5556" filterUnits="userSpaceOnUse" color-interpolation-filters="sRGB">
<feFlood flood-opacity="0" result="BackgroundImageFix"/>
<feGaussianBlur in="BackgroundImageFix" stdDeviation="4.48"/>
<feComposite in2="SourceAlpha" operator="in" result="effect1_backgroundBlur_2709_4303"/>
<feBlend mode="normal" in="SourceGraphic" in2="effect1_backgroundBlur_2709_4303" result="shape"/>
</filter>
<filter id="filter2_d_2709_4303" x="20.0066" y="25.7312" width="16.6843" height="11.7065" filterUnits="userSpaceOnUse" color-interpolation-filters="sRGB">
<feFlood flood-opacity="0" result="BackgroundImageFix"/>
<feColorMatrix in="SourceAlpha" type="matrix" values="0 0 0 0 0 0 0 0 0 0 0 0 0 0 0 0 0 0 127 0" result="hardAlpha"/>
<feOffset dx="1.21551" dy="1.21551"/>
<feGaussianBlur stdDeviation="1.21551"/>
<feColorMatrix type="matrix" values="0 0 0 0 0.152941 0 0 0 0 0.784314 0 0 0 0 0.235294 0 0 0 0.5 0"/>
<feBlend mode="normal" in2="BackgroundImageFix" result="effect1_dropShadow_2709_4303"/>
<feBlend mode="normal" in="SourceGraphic" in2="effect1_dropShadow_2709_4303" result="shape"/>
</filter>
<radialGradient id="paint0_radial_2709_4303" cx="0" cy="0" r="1" gradientUnits="userSpaceOnUse" gradientTransform="translate(1 1) rotate(45) scale(79.196)">
<stop stop-color="#FAFAFA"/>
<stop offset="1" stop-color="#F7F7F7" stop-opacity="0"/>
</radialGradient>
<linearGradient id="paint1_linear_2709_4303" x1="29" y1="1" x2="29" y2="57" gradientUnits="userSpaceOnUse">
<stop stop-color="white"/>
<stop offset="1" stop-color="white" stop-opacity="0"/>
</linearGradient>
<linearGradient id="paint2_linear_2709_4303" x1="27.1333" y1="44.68" x2="46.1977" y2="26.4288" gradientUnits="userSpaceOnUse">
<stop stop-color="#209440"/>
<stop offset="1" stop-color="#2EFF36"/>
</linearGradient>
<linearGradient id="paint3_linear_2709_4303" x1="15.9333" y1="15.4356" x2="40.6946" y2="37.6982" gradientUnits="userSpaceOnUse">
<stop stop-color="white" stop-opacity="0.25"/>
<stop offset="1" stop-color="white" stop-opacity="0"/>
</linearGradient>
<linearGradient id="paint4_linear_2709_4303" x1="27.2328" y1="35.2493" x2="35.5071" y2="21.2396" gradientUnits="userSpaceOnUse">
<stop stop-color="white"/>
<stop offset="1" stop-color="white" stop-opacity="0.2"/>
</linearGradient>
</defs>
</svg>

<svg width="58" height="58" viewBox="0 0 58 58" fill="none" xmlns="http://www.w3.org/2000/svg"><g filter="url(#filter0_b_2709_4303)"><rect x="1" y="1" width="56" height="56" rx="16" fill="url(#paint0_radial_2709_4303)" fill-opacity=".2"/><rect x="1" y="1" width="56" height="56" rx="16" stroke="url(#paint1_linear_2709_4303)"/></g><circle cx="36.467" cy="35.347" r="9.333" fill="url(#paint2_linear_2709_4303)"/><g filter="url(#filter1_b_2709_4303)"><path fill-rule="evenodd" clip-rule="evenodd" d="M18.498 16.624c.131-.095.266-.183.407-.263a.92.92 0 00.192.277c1.606 1.606 2.866 2.865 3.977 3.754 1.125.9 2.18 1.492 3.393 1.684a7.153 7.153 0 002.239 0c1.18-.187 2.208-.75 3.298-1.609 1.076-.847 2.284-2.041 3.804-3.56a.936.936 0 00.127-.158c.46.358.867.78 1.21 1.252 1.188 1.635 1.188 3.968 1.188 8.635v2.489c0 4.666 0 6.999-1.188 8.635a6.222 6.222 0 01-1.377 1.376c-1.635 1.188-3.968 1.188-8.635 1.188-4.666 0-7 0-8.635-1.188a6.224 6.224 0 01-1.376-1.376c-1.189-1.636-1.189-3.97-1.189-8.635v-2.49c0-4.666 0-6.999 1.189-8.635a6.222 6.222 0 011.376-1.376z" fill="#28D03B" fill-opacity=".35"/><path d="M27.133 15.436c3.36 0 5.51 0 7.062.443-1.394 1.39-2.437 2.406-3.346 3.122-.958.754-1.692 1.114-2.435 1.231a5.284 5.284 0 01-1.655 0c-.765-.12-1.52-.498-2.518-1.297-.93-.744-2-1.794-3.434-3.226 1.484-.273 3.467-.273 6.326-.273z" fill="#28D03B" fill-opacity=".35"/><path d="M19.075 16.285l-.084-.188-.179.102a4.62 4.62 0 00-.424.274 6.41 6.41 0 00-1.417 1.418c-.622.855-.924 1.884-1.075 3.27-.15 1.381-.15 3.14-.15 5.463v2.512c0 2.323 0 4.082.15 5.463.15 1.387.453 2.415 1.075 3.27a6.408 6.408 0 001.418 1.418c.854.621 1.883.924 3.27 1.075 1.381.15 3.14.15 5.463.15h.023c2.323 0 4.081 0 5.463-.15 1.386-.15 2.415-.454 3.27-1.075a6.41 6.41 0 001.418-1.418c.621-.855.924-1.883 1.074-3.27.15-1.381.15-3.14.15-5.463v-2.512c0-2.323 0-4.081-.15-5.463-.15-1.387-.453-2.415-1.074-3.27a6.41 6.41 0 00-1.247-1.29l-.161-.125-.11.172a.756.756 0 01-.102.126c-1.523 1.522-2.722 2.707-3.788 3.547-1.076.848-2.075 1.39-3.212 1.57a6.968 6.968 0 01-2.18 0c-1.169-.184-2.192-.754-3.305-1.644-1.101-.882-2.354-2.132-3.962-3.74a.746.746 0 01-.154-.223zm15.252-.274l.224-.224-.305-.087c-1.576-.451-3.748-.451-7.073-.451h-.063c-2.839 0-4.836 0-6.337.276l-.35.065.252.251c1.433 1.43 2.51 2.488 3.45 3.24 1.01.81 1.795 1.207 2.605 1.336.567.09 1.145.09 1.713 0 .787-.125 1.55-.505 2.521-1.27.92-.723 1.97-1.747 3.363-3.136z" stroke="url(#paint3_linear_2709_4303)" stroke-width=".373" stroke-linecap="round"/></g><g filter="url(#filter2_d_2709_4303)"><path fill-rule="evenodd" clip-rule="evenodd" d="M24.644 26.947a.933.933 0 100 1.866h4.978a.933.933 0 000-1.866h-4.978zm-2.489 4.977a.933.933 0 100 1.867h9.956a.933.933 0 100-1.866h-9.956z" fill="url(#paint4_linear_2709_4303)"/></g><defs><linearGradient id="paint1_linear_2709_4303" x1="29" y1="1" x2="29" y2="57" gradientUnits="userSpaceOnUse"><stop stop-color="#fff"/><stop offset="1" stop-color="#fff" stop-opacity="0"/></linearGradient><linearGradient id="paint2_linear_2709_4303" x1="27.133" y1="44.68" x2="46.198" y2="26.429" gradientUnits="userSpaceOnUse"><stop stop-color="#209440"/><stop offset="1" stop-color="#2EFF36"/></linearGradient><linearGradient id="paint3_linear_2709_4303" x1="15.933" y1="15.436" x2="40.695" y2="37.698" gradientUnits="userSpaceOnUse"><stop stop-color="#fff" stop-opacity=".25"/><stop offset="1" stop-color="#fff" stop-opacity="0"/></linearGradient><linearGradient id="paint4_linear_2709_4303" x1="27.233" y1="35.249" x2="35.507" y2="21.24" gradientUnits="userSpaceOnUse"><stop stop-color="#fff"/><stop offset="1" stop-color="#fff" stop-opacity=".2"/></linearGradient><filter id="filter0_b_2709_4303" x="-8.46" y="-8.46" width="74.92" height="74.92" filterUnits="userSpaceOnUse" color-interpolation-filters="sRGB"><feFlood flood-opacity="0" result="BackgroundImageFix"/><feGaussianBlur in="BackgroundImageFix" stdDeviation="4.48"/><feComposite in2="SourceAlpha" operator="in" result="effect1_backgroundBlur_2709_4303"/><feBlend in="SourceGraphic" in2="effect1_backgroundBlur_2709_4303" result="shape"/></filter><filter id="filter1_b_2709_4303" x="6.6" y="6.102" width="41.067" height="43.556" filterUnits="userSpaceOnUse" color-interpolation-filters="sRGB"><feFlood flood-opacity="0" result="BackgroundImageFix"/><feGaussianBlur in="BackgroundImageFix" stdDeviation="4.48"/><feComposite in2="SourceAlpha" operator="in" result="effect1_backgroundBlur_2709_4303"/><feBlend in="SourceGraphic" in2="effect1_backgroundBlur_2709_4303" result="shape"/></filter><filter id="filter2_d_2709_4303" x="20.007" y="25.731" width="16.684" height="11.707" filterUnits="userSpaceOnUse" color-interpolation-filters="sRGB"><feFlood flood-opacity="0" result="BackgroundImageFix"/><feColorMatrix in="SourceAlpha" values="0 0 0 0 0 0 0 0 0 0 0 0 0 0 0 0 0 0 127 0" result="hardAlpha"/><feOffset dx="1.216" dy="1.216"/><feGaussianBlur stdDeviation="1.216"/><feColorMatrix values="0 0 0 0 0.152941 0 0 0 0 0.784314 0 0 0 0 0.235294 0 0 0 0.5 0"/><feBlend in2="BackgroundImageFix" result="effect1_dropShadow_2709_4303"/><feBlend in="SourceGraphic" in2="effect1_dropShadow_2709_4303" result="shape"/></filter><radialGradient id="paint0_radial_2709_4303" cx="0" cy="0" r="1" gradientUnits="userSpaceOnUse" gradientTransform="rotate(45 -.707 1.707) scale(79.196)"><stop stop-color="#FAFAFA"/><stop offset="1" stop-color="#F7F7F7" stop-opacity="0"/></radialGradient></defs></svg> 0 0 0 0 0 0 0 0 0 0 0 0 0 0 0 0 0 127 0" result="hardAlpha"/>
<feOffset dx="1.21551" dy="1.21551"/>
<feGaussianBlur stdDeviation="1.21551"/>
<feColorMatrix type="matrix" values="0 0 0 0 0.152941 0 0 0 0 0.784314 0 0 0 0 0.235294 0 0 0 0.5 0"/>
<feBlend mode="normal" in2="BackgroundImageFix" result="effect1_dropShadow_2709_4303"/>
<feBlend mode="normal" in="SourceGraphic" in2="effect1_dropShadow_2709_4303" result="shape"/>
</filter>
<radialGradient id="paint0_radial_2709_4303" cx="0" cy="0" r="1" gradientUnits="userSpaceOnUse" gradientTransform="translate(1 1) rotate(45) scale(79.196)">
<stop stop-color="#FAFAFA"/>
<stop offset="1" stop-color="#F7F7F7" stop-opacity="0"/>
</radialGradient>
<linearGradient id="paint1_linear_2709_4303" x1="29" y1="1" x2="29" y2="57" gradientUnits="userSpaceOnUse">
<stop stop-color="white"/>
<stop offset="1" stop-color="white" stop-opacity="0"/>
</linearGradient>
<linearGradient id="paint2_linear_2709_4303" x1="27.1333" y1="44.68" x2="46.1977" y2="26.4288" gradientUnits="userSpaceOnUse">
<stop stop-color="#209440"/>
<stop offset="1" stop-color="#2EFF36"/>
</linearGradient>
<linearGradient id="paint3_linear_2709_4303" x1="15.9333" y1="15.4356" x2="40.6946" y2="37.6982" gradientUnits="userSpaceOnUse">
<stop stop-color="white" stop-opacity="0.25"/>
<stop offset="1" stop-color="white" stop-opacity="0"/>
</linearGradient>
<linearGradient id="paint4_linear_2709_4303" x1="27.2328" y1="35.2493" x2="35.5071" y2="21.2396" gradientUnits="userSpaceOnUse">
<stop stop-color="white"/>
<stop offset="1" stop-color="white" stop-opacity="0.2"/>
</linearGradient>
</defs>
</svg>
